X:1
T:Mozarts Military Waltz. CJF.007
T:Mozarts Military Waltz. CJF.007
T:Mozart
C:Mozart
L:1/8
Q:1/8=140
M:3/4
K:D
V:1 treble 
V:1
"^p" A2 | A2 A2 A2 | A2 A2 A2 |"^f" (A6 | d2) z2"^p" A2 | A2 A2 A2 | A2 A2 A2 |"^f" (A6 | %8
 e2) z2 A2 | f2 f2 f2 | g2 e2 c2 | d2 d2 d2 | d2 c2 B2 | A2 d2 f2 |"^f" a2 g2 e2 | (e6 | d2) z2 || %17
"^p" (df) | a2 ^gabaf | d4 (ed) | cdefga | (g2 f2) (df) | g2 ^gabaf | d4 (ed) | ABcdef | d4 |: %26
"^f" F2 | f2 (f>f) f2 | f4 e2 | d2 c2 B2 | ^A2 c2 F2 | f2 (f>f) f2 | f4 e2 | d2 c2 B2 | f4 (df) | %35
 a2 ^gabaf | d4 (ed) | cdefga | (g2 f2) (df) | a2 ^gabaf | d4 (ed) | ABcdef | d4 |: e2 | e2 d2 c2 | %45
 c2 B2 A2 | (dc) d2 e2 | f4 d2 | e2 d2 c2 | c2 B2 A2 | (de) f2 e2 | d4 :| %52

